X: 21414
T: Kesh, The
R: jig
M: 6/8
K: Gmajor
D|:~G3 GAB|~A3 AB/c/d|edd gdd|edB dBA|
~G3 GAB|~A3 AB/c/d|edd gdB|1 AGE G2D:|2 AGE G2A||
|:~B3 dBd|e/f/ge dBG|~B3 dBG|ABA AGA|
~B3 dBd|e/f/ge dBd|~g3 ~a3|1 bgf g2A:|2 bge dBA||

